X:1     %Music
T:The Sinners' Redemption
T:All you that are unto mirth inclined
B:C Sharp, English Folk Carols, 1911, Novello & Co Ltd.
F:http://www.folkinfo.org/songs
M:3/2     %Meter
L:1/8     %
K:Bb
F2 |D2 D2 B4 A2 G2 |F2 G2 D6     
w:All you that are un-to mirth in-clined,     
A2 |B2 c2 d4 G2 F2 |G2 A2 B6
w:Con-sid-er well and do bear in mind 
c2 |d2 d2 c4 (B3 G) |F2 G2 (D=E F4)     
w: What our great God for_ us hath done__   
E2 |D2 C2 F6 G2 |A2 B2 G6 |]
w:In send-ing His be-lov-ed Son